X: 013
T: Ayr Races, a Reel
C: attr. John French (1753-1803)
R: reel
B: "John French Collection", John French ed. p.1 #3
S: http://www.heallan.com/french.asp
Z: 2012 John Chambers <jc:trillian.mit.edu>
M: C
L: 1/8
K: F
C | F2-Fc AFcA | fc (d/c/B/A/) BGGc | AF (FE/F/) (CF)Ac |1 BG {d}cB AF-F :|2 dfeg affc ||
facf dfcf | BfAf Gg-gb | afcf dfeg | fcdB AFFc |
facf BfAf | cfaf dgbg | afcf dbga | fcdB AF-F |]

%%sep 2 1 500
%%sep 1 1 500

